X:574
T:Reel 574
M:4/4
K:Gmaj
L:1/8
 (3def |gfed Bddg| (3efg dB Ac'ba|g>G (3GGG Bddc'|bc'af g2:|ga|b>g (3gfg b>d' (3bc'd' |abc'd' e'c'ac'|b>g (3gfg bgd'e'| (3aba fg a2ga|b>g (3gfg bgd'b|e'gd'b agef|gabc' d'e'd'b|c'afa g2|
